_includes/icons/color-camera.svg

<svg fill="#666" height="50" viewBox="0 0 48 48" width="50" xmlns="http://www.w3.org/2000/svg"><path d="m33.898438 12.101563h-19.699219l3.402344-5.101563c.398437-.601562 1-.898437 1.699218-.898437h9.597657c.703125 0 1.300781.296875 1.703125.898437z" fill="#512da8"/><path d="m14 11h-6v-1.800781c0-.699219.5-1.199219 1.199219-1.199219h3.601562c.699219 0 1.199219.5 1.199219 1.199219z" fill="#8667c4"/><path d="m40 42h-32c-2.199219 0-4-1.800781-4-4v-24c0-2.199219 1.800781-4 4-4h32c2.199219 0 4 1.800781 4 4v24c0 2.199219-1.800781 4-4 4z" fill="#5e35b1"/><path d="m36 26c0 6.628906-5.371094 12-12 12s-12-5.371094-12-12 5.371094-12 12-12 12 5.371094 12 12z" fill="#512da8"/><path d="m33 26c0 4.96875-4.03125 9-9 9s-9-4.03125-9-9 4.03125-9 9-9 9 4.03125 9 9z" fill="#b388ff"/><path d="m29 23c-1.199219-1.398437-3-2.199219-4.800781-2.199219s-3.597656.800782-4.800781 2.199219c-.5.5-.398438 1.300781.101562 1.800781s1.300781.398438 1.800781-.101562c1.5-1.699219 4.300782-1.699219 5.800782 0 .296875.300781.597656.402344 1 .402344.296875 0 .597656-.101563.898437-.300782.398438-.402343.5-1.300781 0-1.800781z" fill="#c7a7ff"/><path d="m13 13.5c0-.828125-.894531-1.5-2-1.5s-2 .671875-2 1.5.894531 1.5 2 1.5 2-.671875 2-1.5z" fill="#8667c4"/></svg>

<svg xmlns="http://www.w3.org/2000/svg" viewBox="0 0 48 48" width="50" height="50" fill="#666"><path d="M 33.898438 12.101563 L 14.199219 12.101563 L 17.601563 7 C 18 6.398438 18.601563 6.101563 19.300781 6.101563 L 28.898438 6.101563 C 29.601563 6.101563 30.199219 6.398438 30.601563 7 Z" fill="#512da8"/><path d="M 14 11 L 8 11 L 8 9.199219 C 8 8.5 8.5 8 9.199219 8 L 12.800781 8 C 13.5 8 14 8.5 14 9.199219 Z" fill="#8667c4"/><path d="M 40 42 L 8 42 C 5.800781 42 4 40.199219 4 38 L 4 14 C 4 11.800781 5.800781 10 8 10 L 40 10 C 42.199219 10 44 11.800781 44 14 L 44 38 C 44 40.199219 42.199219 42 40 42 Z" fill="#5e35b1"/><path d="M 36 26 C 36 32.628906 30.628906 38 24 38 C 17.371094 38 12 32.628906 12 26 C 12 19.371094 17.371094 14 24 14 C 30.628906 14 36 19.371094 36 26 Z" fill="#512da8"/><path d="M 33 26 C 33 30.96875 28.96875 35 24 35 C 19.03125 35 15 30.96875 15 26 C 15 21.03125 19.03125 17 24 17 C 28.96875 17 33 21.03125 33 26 Z" fill="#b388ff"/><path d="M 29 23 C 27.800781 21.601563 26 20.800781 24.199219 20.800781 C 22.398438 20.800781 20.601563 21.601563 19.398438 23 C 18.898438 23.5 19 24.300781 19.5 24.800781 C 20 25.300781 20.800781 25.199219 21.300781 24.699219 C 22.800781 23 25.601563 23 27.101563 24.699219 C 27.398438 25 27.699219 25.101563 28.101563 25.101563 C 28.398438 25.101563 28.699219 25 29 24.800781 C 29.398438 24.398438 29.5 23.5 29 23 Z" fill="#c7a7ff"/><path d="M 13 13.5 C 13 12.671875 12.105469 12 11 12 C 9.894531 12 9 12.671875 9 13.5 C 9 14.328125 9.894531 15 11 15 C 12.105469 15 13 14.328125 13 13.5 Z" fill="#8667c4"/></svg>
